X:1
T: Donald Clearruch
T:aka The Neat Shoe
C:
R:Strathspey
Q: 128
K:D
M:4/4
L:1/16
|:A2|F3D DDD2 A3F E3A|F3D DDD2 d3e d3c|B3A Bd3 e3E E3F|AAA2 B3A d3D D2:|
|:E2|DDD2 F3D B,3D E3F|DDD2 F3E DA,3 A,3B,|DDD2 F3D B,3D EF3|AAA2 B3A d3D D2:|
|:A2|ddd2 ddd2 eee2 eee2|ddd2 d4 d3f e3d|ddd2 ddd2 eee2 eee2|dB3 A3B d4 d2:|
|:A2|B1/2c1/2d3 B1/2c1/2d3 A3F ED3|BBB2 BBB2 B3A Bc3|B1/2c1/2d3 B1/2c1/2d3 A3F EF3|D3B, A,3B, D4 D2:|
